X: 33631
T: Rambler, The
R: jig
M: 6/8
K: Amajor
|:F|ECE E2 A|FEC E2 e|fec ABc|dcd BAF|
ECE E2 A|FEC E2 e|fec ABc|BAG A2:|
|:e|ece Ace|aga fdf|ece fec|BcA Bcd|
ece Ace|aga fdf|ece fec|BAG A2:|

